assets/Nesting dolls/Flat/nesting_dolls_flat.svg

<svg width="32" height="32" viewBox="0 0 32 32" fill="none" xmlns="http://www.w3.org/2000/svg">
<path d="M9 14.5C7.61325 16.5801 7 18 7 20H25C25 18 24.3868 16.5801 23 14.5C22 13 21.5 10 21.5 9C21.5 6.66667 21 2 16 2C11 2 10.5 6.66667 10.5 9C10.5 10 10 13 9 14.5Z" fill="#F70A8D"/>
<path d="M21 20C19 19.5 16.5 14 16 12C15.5 14 13 19.5 11 20H21Z" fill="#F4F4F4"/>
<path d="M5 20C5 19.4477 5.44772 19 6 19H9L16 21.8067L23 19H26C26.5523 19 27 19.4477 27 20V21C27 25.9706 22.9706 30 18 30H14C9.02944 30 5 25.9706 5 21V20Z" fill="#CA0B4A"/>
<path d="M9 19H23V20C23 23.3137 20.3137 26 17 26H15C11.6863 26 9 23.3137 9 20V19Z" fill="white"/>
<path d="M14.3182 12C13.314 12 12.5 12.814 12.5 13.8182C12.5 13.9186 12.5814 14 12.6818 14H14C14.7403 14 15.3866 13.5978 15.7324 13C15.8876 12.75 16.1206 12.746 16.2676 13C16.6134 13.5978 17.2597 14 18 14H19.3182C19.4186 14 19.5 13.9186 19.5 13.8182C19.5 12.814 18.686 12 17.6818 12H14.3182Z" fill="#CA0B4A"/>
<path d="M20 8C20 10.2091 18.2091 12 16 12C13.7909 12 12 10.2091 12 8C12 5.79086 13.7909 4 16 4C18.2091 4 20 5.79086 20 8Z" fill="#F3C07B"/>
<path d="M14.5 8C14.2239 8 14 8.22386 14 8.5V9C14 9.27614 14.2239 9.5 14.5 9.5C14.7761 9.5 15 9.27614 15 9V8.5C15 8.22386 14.7761 8 14.5 8ZM17.5 8C17.2239 8 17 8.22386 17 8.5V9C17 9.27614 17.2239 9.5 17.5 9.5C17.7761 9.5 18 9.27614 18 9V8.5C18 8.22386 17.7761 8 17.5 8Z" fill="black"/>
<path d="M16 4C13.7909 4 12 5.79086 12 8C14.2091 8 16 6.20914 16 4ZM20 8C17.7909 8 16 6.20914 16 4C18.2091 4 20 5.79086 20 8Z" fill="#A56953"/>
</svg>

<svg xmlns="http://www.w3.org/2000/svg" width="32" height="32" fill="none"><path fill="#F70A8D" d="M9 14.5C7.613 16.58 7 18 7 20h18c0-2-.613-3.42-2-5.5C22 13 21.5 10 21.5 9c0-2.333-.5-7-5.5-7s-5.5 4.667-5.5 7c0 1-.5 4-1.5 5.5Z"/><path fill="#F4F4F4" d="M21 20c-2-.5-4.5-6-5-8-.5 2-3 7.5-5 8h10Z"/><path fill="#CA0B4A" d="M5 20a1 1 0 0 1 1-1h3l7 2.807L23 19h3a1 1 0 0 1 1 1v1a9 9 0 0 1-9 9h-4a9 9 0 0 1-9-9v-1Z"/><path fill="#fff" d="M9 19h14v1a6 6 0 0 1-6 6h-2a6 6 0 0 1-6-6v-1Z"/><path fill="#CA0B4A" d="M14.318 12a1.818 1.818 0 0 0-1.818 1.818c0 .1.081.182.182.182H14a2 2 0 0 0 1.732-1c.156-.25.389-.254.536 0A2 2 0 0 0 18 14h1.318c.1 0 .182-.081.182-.182A1.818 1.818 0 0 0 17.682 12h-3.364Z"/><path fill="#F3C07B" d="M20 8a4 4 0 1 1-8 0 4 4 0 0 1 8 0Z"/><path fill="#000" d="M14.5 8a.5.5 0 0 0-.5.5V9a.5.5 0 0 0 1 0v-.5a.5.5 0 0 0-.5-.5Zm3 0a.5.5 0 0 0-.5.5V9a.5.5 0 0 0 1 0v-.5a.5.5 0 0 0-.5-.5Z"/><path fill="#A56953" d="M16 4a4 4 0 0 0-4 4 4 4 0 0 0 4-4Zm4 4a4 4 0 0 1-4-4 4 4 0 0 1 4 4Z"/></svg>
